src/lib/packages/icons/src/assets/filled/video-play.svg

<svg width="24" height="24" viewBox="0 0 24 24" fill="none" xmlns="http://www.w3.org/2000/svg">
<path d="M9.75 7.94995V3.30005C9.75 3.13405 9.88405 3 10.05 3H13.95C14.116 3 14.25 3.13405 14.25 3.30005V7.94995C14.25 8.11595 14.116 8.25 13.95 8.25H10.05C9.88405 8.25 9.75 8.11595 9.75 7.94995ZM21 10.05V17.625C21 19.875 19.875 21 17.625 21H6.375C4.125 21 3 19.875 3 17.625V10.05C3 9.88405 3.13405 9.75 3.30005 9.75H20.7C20.866 9.75 21 9.88405 21 10.05ZM14.5811 13.7539L11.432 11.8269C10.805 11.4439 9.99902 11.893 9.99902 12.626V16.373C9.99902 17.106 10.805 17.5561 11.432 17.1721L14.5811 15.2451C15.1401 14.9041 15.1401 14.0959 14.5811 13.7539ZM3.30005 8.25H7.94995C8.11595 8.25 8.25 8.11595 8.25 7.94995V3.30005C8.25 3.13405 8.11595 3 7.94995 3H6.375C4.125 3 3 4.125 3 6.375V7.94995C3 8.11595 3.13405 8.25 3.30005 8.25ZM17.625 3H16.05C15.884 3 15.75 3.13405 15.75 3.30005V7.94995C15.75 8.11595 15.884 8.25 16.05 8.25H20.7C20.866 8.25 21 8.11595 21 7.94995V6.375C21 4.125 19.875 3 17.625 3Z" fill="currentColor"/>
</svg>

<svg xmlns="http://www.w3.org/2000/svg" width="24" height="24" fill="none"><path fill="currentColor" d="M9.75 7.95V3.3a.3.3 0 0 1 .3-.3h3.9a.3.3 0 0 1 .3.3v4.65a.3.3 0 0 1-.3.3h-3.9a.3.3 0 0 1-.3-.3ZM21 10.05v7.575C21 19.875 19.875 21 17.625 21H6.375C4.125 21 3 19.875 3 17.625V10.05a.3.3 0 0 1 .3-.3h17.4a.3.3 0 0 1 .3.3Zm-6.419 3.704-3.149-1.927a.941.941 0 0 0-1.433.799v3.747a.94.94 0 0 0 1.433.8l3.15-1.928a.873.873 0 0 0 0-1.491ZM3.301 8.25H7.95a.3.3 0 0 0 .3-.3V3.3a.3.3 0 0 0-.3-.3H6.375C4.125 3 3 4.125 3 6.375V7.95a.3.3 0 0 0 .3.3ZM17.624 3H16.05a.3.3 0 0 0-.3.3v4.65a.3.3 0 0 0 .3.3h4.65a.3.3 0 0 0 .3-.3V6.375C21 4.125 19.875 3 17.625 3Z"/></svg>
